X:112
T: Zhenjing hong
N: C1606
O: China,Anhui, Jinzhai
S: III, 577]
R: Shange, Zhenjing hong, Guoshanqing]
M: 2/4
L: 1/32
K: Eb
z4c4 | g2c2e8f4 | g2e2f4z4
f4 | b2g2b4AB3AB3 | c2B2G4FG3FG3 | g4g2g2f4z4 |
c2e2e8f4 | g2e2f4z4
f4 | gfgfg8c2b2 | g2f6e2f2gfg2 | b2g2f8e2c2 |
z4f4 | babab4abababbg | c2b2g4g8 |
b2g2f4f4e2f2 | g2fgf2g2g2g2g4 |
g2f2f4g4c2b2 | g2f6e2f2gfg2 | b2g2f4f4e2c2 |
z4e4 | f16 | g2f2g4f2g6 | c2b2g4g2g2g4 | g2f2e8
f4 | (3g2f2g2fgfg-g4c2b2 | g2f6
e2f2gfg2 | b2g2f8e2c2

@@@ Tune index: 6667
